X: 40
T:Devanney's Goat
M:4/4
L:1/8
Q:120
R:reel
P:2
Z:Gerry Strong
K:D
DFAB AFEF|defe dBAF|DF ~F2 BF ~F2|~E3 F EGFE|DFAB AFEF|defe dBAf|efdB
AFdB|AFEF D2 z2:|
|:faab afef|afef dB ~B2|ABde fd ~d2|edfd edBd|ABde fd ~d2|edfd edBd|ABdB
AFEF|AFEF D2 z2:|

